!! 00000] TT[00
!! NN
!!!OTL: Gongchan dang xiang taiyang
!!!ARE: Zhejiang, Lishui
!! Ethnic Group: She
!! III, 600
!!!SCT: C0355
!!!YEM: Copyright 1995, estate of Helmut Schaffrath.
**kern
*ICvox
*Ivox
*M2/4
*k[f#]
*G:
{8g
8dd
16ee
16dd
16ee
16dd
=1
8dd
16ee
16dd
4b
=2
4.dd
8ee}
=3
{8b
8b
16ee
16dd
[8b
=4
2b]}
=5
{16ee
16ee
8dd
16ee
16dd
8b
=6
8ee
4dd
8ee
=7
[2b
=8
2b]}
=9
{8ee
8dd
16b
16dd
16ee
16dd
=10
8g
8dd
16ee
16dd
8b
=11
4.dd
8ee}
=12
{8.dd
16ee
8g
8dd
=13
2b}
=14
{8ee
8dd
8b
[8dd
=15
4.dd]
8ee
=16
[2b
=17
2b]}
==
!!!AGN: Shange. Xinminge
!! Die She leben auch in Guandung, Fujian und Taiwan.
!!    Sie singen auch zweistimmig: er chong bu.
!!    Vereinzelt Verzierungen.
!!!ONB: ESAC (Essen Associative Code) Database: CHINA
!!!AMT: simple duple
!!!AIN: vox
!!!EED: Helmut Schaffrath
!!!EEV: 1.0
*-
!!!ONB: Tied note syntax fixed by Craig Sapp, 2004/05/03/
